X: 34769
T: Road To Nowhere, The
R: reel
M: 4/4
K: Gmajor
"G"DGGF GABc|dgfd "Am"c2 Bc|"D"d2 cA "G"BG"Am"AG|"D"FGAG FDCA,|
"G"D2 GF GABc|dgfd "Am"c2 de|"D" f2 af "G" gagf|"D" decA "G" G4:|
"G"g3 a b2 "D7"c'a|"G"gb"Am"ag "D"f3 e|"D"d3 e fgfe|"D"dedc "Am" AG"D"FA|
"G"G3 A BABc|"D"defd "Em" g3 b|"Am"a2 (3gfe "D" fadc|"D7" AdcA "G" G4:|

